X: 37978
T: Sparrow, The
R: jig
M: 6/8
K: Fmajor
|:F2D EDC|CEG FGA|c2A BAG|FGA D2E|
FAC FAC|D2D E2E|F2F G2G|AGE F2G:|
|:Acf f2c|dfB cAF|Acf f2c|def g2g|
agf gfe|def c2E|F2F G2G|1 AGE F2G:|2 AGE F3||

